public/icons/eft/03-items/equipment/infoitems.svg

<svg width="16" height="16" viewBox="0 0 16 16" fill="none" xmlns="http://www.w3.org/2000/svg">
<path fill-rule="evenodd" clip-rule="evenodd" d="M12.1097 1C13.4289 1 14.3698 2.22893 13.9763 3.43826L11.3097 11.6334C11.0545 12.4174 10.2983 12.9512 9.44302 12.9512H1.07713C1.08955 13.2406 1.11874 13.4668 1.19866 13.6395C1.2494 13.7491 1.31328 13.8198 1.40213 13.8696C1.49791 13.9232 1.66435 13.9756 1.9556 13.9756H10.8652C11.254 13.9756 11.5978 13.733 11.7138 13.3767L14.9575 3.40825C15.0454 3.13826 15.3445 2.98777 15.6256 3.07212C15.9067 3.15649 16.0634 3.44371 15.9756 3.7137L12.7319 13.6822C12.4767 14.4662 11.7205 15 10.8652 15H1.9556C1.53588 15 1.16886 14.9243 0.864635 14.7539C0.553569 14.5796 0.350688 14.3301 0.223669 14.0556C-0.000817776 13.5706 -0.000339453 12.964 3.05436e-05 12.4947L6.00186e-05 12.439V12.361L3.26808 2.31784C3.52322 1.53383 4.27943 1 5.13473 1H12.1097ZM10.4875 6.46341C10.782 6.46341 11.0208 6.69273 11.0208 6.97561C11.0208 7.25849 10.782 7.4878 10.4875 7.4878H4.44307C4.14852 7.4878 3.90974 7.25849 3.90974 6.97561C3.90974 6.69273 4.14852 6.46341 4.44307 6.46341H10.4875ZM11.7319 4.58537C11.7319 4.30249 11.4931 4.07317 11.1986 4.07317H5.15417C4.85963 4.07317 4.62085 4.30249 4.62085 4.58537C4.62085 4.86824 4.85963 5.09756 5.15417 5.09756H11.1986C11.4931 5.09756 11.7319 4.86824 11.7319 4.58537Z" fill="#9CA3AF"/>
</svg>

<svg xmlns="http://www.w3.org/2000/svg" width="16" height="16" fill="none" viewBox="0 0 16 16"><path fill="#9ca3af" fill-rule="evenodd" d="M5.135 2.024a.89.89 0 0 0-.849.6L1.26 11.926h8.184a.89.89 0 0 0 .849-.6l2.666-8.194c.18-.55-.249-1.109-.848-1.109zm5.886 4.952a.523.523 0 0 0-.534-.513H4.444a.523.523 0 0 0-.533.513c0 .282.239.512.533.512h6.045c.294 0 .533-.23.533-.512m.71-2.39a.523.523 0 0 0-.532-.513H5.154a.523.523 0 0 0-.533.512c0 .283.239.513.533.513H11.2c.294 0 .533-.23.533-.513" clip-rule="evenodd"/><path fill="#9ca3af" fill-rule="evenodd" d="M12.11 1c1.319 0 2.26 1.229 1.866 2.438l-2.666 8.195c-.255.784-1.012 1.318-1.867 1.318H1.077c.013.29.042.516.122.688.05.11.114.18.203.23.096.054.262.107.554.107h8.91a.89.89 0 0 0 .848-.6l3.243-9.968a.54.54 0 0 1 .669-.336.51.51 0 0 1 .35.642l-3.244 9.968C12.477 14.466 11.72 15 10.865 15h-8.91c-.42 0-.786-.076-1.09-.246a1.5 1.5 0 0 1-.641-.698C-.001 13.57 0 12.964 0 12.495v-.134L3.268 2.318C3.523 1.534 4.28 1 5.135 1zM5.135 2.024a.89.89 0 0 0-.849.6L1.26 11.926h8.184a.89.89 0 0 0 .849-.6l2.666-8.194c.18-.55-.249-1.109-.848-1.109z" clip-rule="evenodd"/></svg>
